theme-base/src/main/assets/themes/mapsforgeV3/base/symbols/db_poi_tower_communication.svg

<svg enable-background="new 0 0 48 48" height="48" viewBox="0 0 48 48" width="48" xmlns="http://www.w3.org/2000/svg"><path d="m16 44 8-42 8 42z"/><path d="m24.77 6.039-.385-2.02c-.13-.002-.255-.019-.385-.019s-.255.017-.385.02l-.385 2.02c.257-.015.51-.04.77-.04s.513.025.77.039zm3.812-1.365.432 2.271c5.247 2.022 8.986 7.104 8.986 13.055 0 4.07-1.757 7.729-4.539 10.29l.432 2.27c3.714-2.93 6.107-7.461 6.107-12.56 0-7.243-4.816-13.355-11.418-15.326zm-9.596 2.27.433-2.27c-6.603 1.971-11.419 8.083-11.419 15.326 0 5.099 2.393 9.63 6.107 12.56l.432-2.27c-2.782-2.561-4.539-6.219-4.539-10.29 0-5.952 3.739-11.034 8.986-13.056zm5.014 27.056c-2.089 0-4.066-.473-5.848-1.297l-.388 2.035c1.917.813 4.024 1.262 6.236 1.262s4.319-.449 6.236-1.261l-.388-2.036c-1.783.824-3.759 1.297-5.848 1.297z"/></svg>

<?xml version="1.0" encoding="utf-8"?>
<!-- Generator: Adobe Illustrator 15.0.2, SVG Export Plug-In . SVG Version: 6.00 Build 0)  -->
<!DOCTYPE svg PUBLIC "-//W3C//DTD SVG 1.1//EN" "http://www.w3.org/Graphics/SVG/1.1/DTD/svg11.dtd">
<svg version="1.1" id="Vrstva_3" xmlns="http://www.w3.org/2000/svg" xmlns:xlink="http://www.w3.org/1999/xlink" x="0px" y="0px"
	 width="48px" height="48px" viewBox="0 0 48 48" enable-background="new 0 0 48 48" xml:space="preserve">
<g>
	<polygon points="16,44 24,2 32,44 	"/>
</g>
<g>
	<g>
		<path d="M24.77,6.039l-0.385-2.02C24.255,4.017,24.13,4,24,4s-0.255,0.017-0.385,0.02l-0.385,2.02C23.487,6.025,23.74,6,24,6
			S24.513,6.025,24.77,6.039z M28.582,4.674l0.432,2.271C34.261,8.967,38,14.049,38,20c0,4.07-1.757,7.729-4.539,10.29l0.432,2.27
			C37.607,29.63,40,25.099,40,20C40,12.757,35.184,6.645,28.582,4.674z M18.986,6.944l0.433-2.27C12.816,6.645,8,12.757,8,20
			c0,5.099,2.393,9.63,6.107,12.56l0.432-2.27C11.757,27.729,10,24.071,10,20C10,14.048,13.739,8.966,18.986,6.944z M24,34
			c-2.089,0-4.066-0.473-5.848-1.297l-0.388,2.035C19.681,35.551,21.788,36,24,36c2.212,0,4.319-0.449,6.236-1.261l-0.388-2.036
			C28.065,33.527,26.089,34,24,34z"/>
	</g>
</g>
</svg>
